storage/app/icons/phosphoricons/light/intersect-square-light.svg

<svg xmlns="http://www.w3.org/2000/svg" fill="currentColor" viewBox="0 0 256 256"><path d="M216 90h-50V40a6 6 0 0 0-6-6H40a6 6 0 0 0-6 6v120a6 6 0 0 0 6 6h50v50a6 6 0 0 0 6 6h120a6 6 0 0 0 6-6V96a6 6 0 0 0-6-6M46 154V46h108v44H96a6 6 0 0 0-6 6v58Zm56-43.52L145.52 154H102Zm52 35L110.48 102H154ZM210 210H102v-44h58a6 6 0 0 0 6-6v-58h44Z"/></svg>

<svg xmlns="http://www.w3.org/2000/svg" viewBox="0 0 256 256" fill="currentColor"><path d="M216,90H166V40a6,6,0,0,0-6-6H40a6,6,0,0,0-6,6V160a6,6,0,0,0,6,6H90v50a6,6,0,0,0,6,6H216a6,6,0,0,0,6-6V96A6,6,0,0,0,216,90ZM46,154V46H154V90H96a6,6,0,0,0-6,6v58Zm56-43.52L145.52,154H102Zm52,35L110.48,102H154ZM210,210H102V166h58a6,6,0,0,0,6-6V102h44Z"/></svg>
